!!!OTL: Neujahrslied.
!!!OTL-incipit: DES JAHRES LETZTE STUNDE
!!!COM: J. Ab. P. Schulz
!!!ARE: Europa, Mitteleuropa, Deutschland
!!!SCT: F1021
!!!TXL: @@DE
!!!YEM: Copyright 1995, estate of Helmut Schaffrath.
**kern	**text
*ICvox	*
*clefG2	*
*M4/4	*
*met(c)	*
*k[b-e-a-]	*
*E-:	*
!LO:TX:a:t=In maessiger Bewegung.	!
!LO:TX:a:t=P:only the highest voice encoded:problem	!
{4B-	1._Des
=1	=1
4e-	Jahres
4g	.
4b-/	letʒ-
4b-/	-te
=2	=2
2b-/	Stun-
8a-qq	.
4g}	-de
{8fL	er-
8e-J	.
=3	=3
4f	-tönt
4f	mit
4f	ernſtem
4B-	.
=4	=4
2g	Schlag
4r}	.
{4e-	Trinkt,
=5	=5
4g	Brüder,
4b-/	.
4ee-	in
4ee-	die
=6	=6
2ee-/	Runde,
8ddqq	.
4cc/}	.
{8b-/L	und
8a-J	.
=7	=7
4b-	wünſcht
4b-	ihm
4dd	Segen
4cc	.
=8	=8
2b-	nach.
4r}	.
{4f	Ʒu
=9	=9
4b-	je-
4cc	-nen
4dd-	grauen
4dd-	.
=10	=10
2dd-/	Jahren
4cc/}	.
{4b-/	ent-
=11	=11
4a-	-flieht
4g	es,
4f	wel-
4e-	-che
=12	=12
2g	waren;
4f}	.
{4B-	es
=13	=13
4e-	brachte
4g	.
4b-/	Freud'
4b-/	u.
=14	=14
4.ee-/	Kum-
8ee-/	-mer
4ee-/}	viel,
{4e-	und
=15	=15
4f	führt
4g	uns
4a-	nä-
4g	-her
=16	=16
2c	an
2d	das
=17	=17
2e-	Ʒiel.
4r}	.
!LO:TX:a:t=Alle.	!
{4e-	Ja,
=18	=18
4g	Freud'
4e-	und
4b-/	Kummer
4g	.
=19	=19
2.ee-/	bracht'
4ee-/	es
=20	=20
2.ee-/}	viel,
{4e-	und
=21	=21
4f	führt
4g	uns
4a-	nä-
4g	-her
=22	=22
2cc/	an
2d	das
=23	=23
2e-	Ʒiel.
4r}	.
==	==
!!!AGN: Erbauungs - Lied, religioes, Fest, Neujahr
!!!ONB: ESAC (Essen Associative Code) Database: FINK
!!!AMT: simple quadruple
!!!AIN: vox
!!!EED: Helmut Schaffrath
!!!EEV: 1.0
!!Text: J. H. Voß
!!!RDF**kern: > = above
!!!GTL: Erbanungslieder.
!!!source: Musikalischer Hausschatz der Deutschen. Eine Sammlung von über 1000 Liedern und Gesängen mit Singstimmen und Klavierbegleitung. Leipzig, Litterarisches Verlags-Haus.
!!!page: 771
!!!URL-scan: https://www.digitale-sammlungen.de/en/view/bsb11144622?page=651
!!!ENC: Anna Maria Matuszewska
!!!EEV: 2024/09/08
*-	*-
